src/img/icons/ico_8.svg

<svg xmlns="http://www.w3.org/2000/svg" width="60" height="60" fill="none">
  <g stroke="#ED6E77" stroke-linecap="round" stroke-linejoin="round" stroke-width="2" clip-path="url(#a)">
    <path d="m22.5 43.125-15 3.75v-33.75l15-3.75M37.5 50.625l-15-7.5V9.375l15 7.5v33.75ZM37.5 16.875l15-3.75v33.75l-15 3.75"/>
  </g>
  <defs>
    <clipPath id="a">
      <path fill="#fff" d="M0 0h60v60H0z"/>
    </clipPath>
  </defs>
</svg>

<svg width="60" height="60" viewBox="0 0 60 60" fill="none" xmlns="http://www.w3.org/2000/svg">
<g clip-path="url(#clip0_2109_4216)">
<path d="M22.5 43.125L7.5 46.875V13.125L22.5 9.375" stroke="#ED6E77" stroke-width="2" stroke-linecap="round" stroke-linejoin="round"/>
<path d="M37.5 50.625L22.5 43.125V9.375L37.5 16.875V50.625Z" stroke="#ED6E77" stroke-width="2" stroke-linecap="round" stroke-linejoin="round"/>
<path d="M37.5 16.875L52.5 13.125V46.875L37.5 50.625" stroke="#ED6E77" stroke-width="2" stroke-linecap="round" stroke-linejoin="round"/>
</g>
<defs>
<clipPath id="clip0_2109_4216">
<rect width="60" height="60" fill="white"/>
</clipPath>
</defs>
</svg>
